X:460
T:Lennoxlove to Blantyre
R:Strathspey
B:The Athole Collection
M:C
L:1/8
K:F
C|F2 F>G A>GF>A|GGA>c d>cd>e|f>gf>d c>AF>A|B>GA>F D2D:|
f|c>df>g a>gf>a|g>fg>a g>fd>f|c>df>g a>gf>a|g>fb>a g2 f>d|
c>df>g a>gf>a|g>fg>a g>fd>f|~c>df>g f<g a>g|f>cb>a g2f||

